X:1
T:Title
%%score { ( 1 3 4 ) | ( 2 5 ) }
L:1/8
Q:1/4=106
M:4/4
K:F
V:1 treble nm="Grand Piano"
V:3 treble 
V:4 treble 
V:2 bass 
V:5 bass 
V:1
 C>C F>G A>G F>G | A2 d2 c4 | [EB]>[EB] [EB]>[EG] A>A A>F | [=B,FG]2 [B,FA]2 [CEG]4 | %4
w: C.~Austin~Miles * * * * * * *||||
 C>C F>G A>G F>G | A2 d2 c4 | =B>B B>B A>A G>G |[M:3/4] [Ec]2 [Fc]2 [Gc]2 |[M:1/4] A>B | %9
w: |||||
[M:4/4] [Ac]6 z2 | [FA-]2 A4 z2 | [Ec]2 [EG]2 [FA]2 [GB]2 |[M:3/4] [FA]6 |[M:1/4] C2 | %14
w: |||||
[M:4/4] F2 A2 [EG]3 [GB] | z2 [Fd]2 z4 | A c3 [EG] [EA]3 | F6 z2 |] %18
w: ||||
V:2
 [F,A,]>[F,A,] [F,A,C]>[F,B,C] [F,CF]>[F,B,F] [F,A,]>[F,B,F] | [F,CF]2 [F,B,F]2 [F,A,F]4 | %2
 [C,C]>[C,C] [C,C]>[C,C] [F,CF]>[F,CF] [F,CF]>[F,A,] | D,2 G,,2 C,4 | %4
 [F,A,]>[F,A,] [F,A,C]>[F,B,C] [F,CF]>[F,B,F] [F,A,]>[K:treble][F,B,F] | %5
 [F,CF]2 [F,B,F]2 [F,A,F]4 | [G,DF]>[G,DF] [G,DF]>[G,DF] [G,CF]>[G,CF] [G,=B,F]>[G,B,F] | %7
[M:3/4][K:bass] [C,G,]2 [C,A,]2 [C,B,]2 |[M:1/4][K:treble] F>G | %9
[M:4/4][K:bass] F,>F, F,>F, F,2[K:treble] B>A | F,>F, F,>F, F,4 | [C,C]2 [C,C]2 [C,C]2 [C,C]2 | %12
[M:3/4] [F,C]>F, F,>F, F,2 |[M:1/4] [F,A,]2 |[M:4/4] [F,A,C]2 [F,CF]2 [C,C]3 [C,C] | %15
 [F,C]2 .[B,,B,]2 [F,A,F]2 [F,A,]2 | [F,CF] [F,A,F]3 [C,B,] [C,C]3 | %17
 F,2- [F,-B,][F,-B,] [F,A,]2 z2 |] %18
V:3
 x8 | x8 | x8 | x8 | x8 | x8 | x8 |[M:3/4] x6 |[M:1/4] x2 |[M:4/4] C>C F>D C2 d>c | z2 F4 z2 | x8 | %12
[M:3/4] z z/ C/ D>A, C2 |[M:1/4] x2 |[M:4/4] x8 | [FA]2 z D, c2 F2 | x8 | z2 DD C2 z2 |] %18
V:4
 x8 | x8 | x8 | x8 | x8 | x8 | x8 |[M:3/4] x6 |[M:1/4] x2 |[M:4/4] x8 | C>C z z/ D/ C4 | x8 | %12
[M:3/4] x6 |[M:1/4] x2 |[M:4/4] x8 | x8 | x8 | x8 |] %18
V:5
 x8 | x8 | x8 | x8 | x15/2[K:treble] x/ | x8 | x8 |[M:3/4][K:bass] x6 |[M:1/4][K:treble] x2 | %9
[M:4/4][K:bass] x6[K:treble] x2 | x8 | x8 |[M:3/4] x6 |[M:1/4] x2 |[M:4/4] x8 | x8 | x8 | %17
 A,2 z2 z4 |] %18

